dist/svg/u1F35E.svg

<?xml version="1.0" encoding="UTF-8"?><svg id="Layer_1" xmlns="http://www.w3.org/2000/svg" viewBox="0 0 40 40"><g><path d="M35.71531,15.57787H12.69261c-.70189,1.59873-1.06428,3.32573-1.06428,5.07174v11.96229c0,1.43314,1.16178,2.59493,2.59491,2.59493h20.19008c1.43314,0,2.36631-1.16179,2.36631-2.59493v-11.96229c0-1.74602-.36244-3.47301-1.06433-5.07174Z" style="fill:#f77f00;"/><path d="M37.4485,12.67397c0-4.35245-5.52034-7.88081-12.33011-7.88081H13.7786s1.17841,6.87211,3.93931,11.54096h18.31955c.89952-1.09393,1.41103-2.33856,1.41103-3.66015Z" style="fill:#f77f00;"/><path d="M27.10866,12.67397c0-4.35245-5.52034-7.88081-12.33005-7.88081S2.4485,8.32152,2.4485,12.67397c0,1.3293,.5171,2.58089,1.42644,3.67942-.49834,1.37575-.75759,2.82875-.75759,4.29622v11.96229c0,1.43314,1.16178,2.59493,2.59491,2.59493H23.84489c1.43314,0,2.59491-1.16179,2.59491-2.59493v-11.96229c0-1.46746-.25925-2.92046-.75765-4.2962,.90934-1.09853,1.42649-2.35014,1.42649-3.67945Z" style="fill:#ffd06c;"/></g><rect width="40" height="40" style="fill:none;"/></svg>

<svg id="Layer_1" data-name="Layer 1" xmlns="http://www.w3.org/2000/svg" viewBox="0 0 40 40"><defs><style>.cls-1{fill:#f77f00;}.cls-2{fill:#ffd06c;}.cls-3{fill:none;}</style></defs><path class="cls-1" d="M35.715,15.578H12.693a12.617,12.617,0,0,0-1.065,5.072V32.612a2.6,2.6,0,0,0,2.6,2.595h20.19a2.41,2.41,0,0,0,2.367-2.595V20.65A12.617,12.617,0,0,0,35.715,15.578Z"/><path class="cls-1" d="M37.448,12.674c0-4.352-5.52-7.881-12.33-7.881H13.779s1.178,6.872,3.939,11.541H36.037A5.735,5.735,0,0,0,37.448,12.674Z"/><path class="cls-2" d="M27.109,12.674c0-4.352-5.521-7.881-12.33-7.881S2.448,8.322,2.448,12.674a5.747,5.747,0,0,0,1.427,3.679,12.627,12.627,0,0,0-.758,4.3V32.612a2.6,2.6,0,0,0,2.6,2.595H23.845a2.6,2.6,0,0,0,2.6-2.595V20.65a12.6,12.6,0,0,0-.758-4.3A5.742,5.742,0,0,0,27.109,12.674Z"/><rect class="cls-3" width="40" height="40"/></svg>
